svgs/duotone/signature-lock.svg

<svg xmlns="http://www.w3.org/2000/svg" viewBox="0 0 640 512"><!--! Font Awesome Pro 6.4.0 by @fontawesome - https://fontawesome.com License - https://fontawesome.com/license (Commercial License) Copyright 2023 Fonticons, Inc. --><defs><style>.fa-secondary{opacity:.4}</style></defs><path class="fa-primary" d="M496 272v48h64V272c0-17.7-14.3-32-32-32s-32 14.3-32 32zm-48 48V272c0-44.2 35.8-80 80-80s80 35.8 80 80v48c17.7 0 32 14.3 32 32V480c0 17.7-14.3 32-32 32H448c-17.7 0-32-14.3-32-32V352c0-17.7 14.3-32 32-32z"/><path class="fa-secondary" d="M128 96c-17.7 0-32 14.3-32 32v32c0 17.7-14.3 32-32 32s-32-14.3-32-32V128c0-53 43-96 96-96s96 43 96 96v7.8c0 20.8-1.2 41.6-3.6 62.3l122.4-36.7c11.4-3.4 23.8-.2 32.2 8.4s11.2 21.1 7.4 32.4l-18 53.9h52.7c-.7 5.2-1.1 10.6-1.1 16v24.6c-9.7 5.6-17.8 13.7-23.4 23.4H320c-10.3 0-19.9-4.9-26-13.3s-7.7-19.1-4.4-28.8l12.5-37.5-94.4 28.3c-11.9 52.8-31.6 103.5-58.4 150.5l-13.9 24.3C122.5 466.1 98.5 480 72.5 480C32.5 480 0 447.5 0 407.5V335.6c0-42.4 27.8-79.8 68.4-92l84.4-25.3c4.8-27.2 7.1-54.9 7.1-82.5V128c0-17.7-14.3-32-32-32zM384 368v48H187.5c8.2-15.7 15.6-31.7 22.3-48H384zM135.8 290.3L86.8 305C73.3 309 64 321.5 64 335.6v71.9c0 4.7 3.8 8.5 8.5 8.5c3 0 5.9-1.6 7.4-4.3l13.9-24.3c17.6-30.8 31.7-63.4 42.1-97.2z"/></svg>

<svg xmlns="http://www.w3.org/2000/svg" viewBox="0 0 640 512"><!--! Font Awesome Pro 6.3.0 by @fontawesome - https://fontawesome.com License - https://fontawesome.com/license (Commercial License) Copyright 2023 Fonticons, Inc. --><defs><style>.fa-secondary{opacity:.4}</style></defs><path class="fa-primary" d="M448 320V272C448 227.8 483.8 192 528 192C572.2 192 608 227.8 608 272V320C625.7 320 640 334.3 640 352V480C640 497.7 625.7 512 608 512H448C430.3 512 416 497.7 416 480V352C416 334.3 430.3 320 448 320zM496 320H560V272C560 254.3 545.7 240 528 240C510.3 240 496 254.3 496 272V320z"/><path class="fa-secondary" d="M128 96C110.3 96 96 110.3 96 128V160C96 177.7 81.67 192 64 192C46.33 192 32 177.7 32 160V128C32 74.98 74.98 32 128 32C181 32 224 74.98 224 128V135.8C224 156.6 222.8 177.4 220.4 198.1L342.8 161.3C354.2 157.9 366.6 161.1 374.1 169.7C383.3 178.3 386.1 190.8 382.4 202.1L364.4 255.1H417.1C416.4 261.2 416 266.6 416 271.1V296.6C406.3 302.2 398.2 310.3 392.6 319.1H320C309.7 319.1 300.1 315.1 294 306.7C288 298.4 286.4 287.6 289.6 277.9L302.1 240.4L207.7 268.7C195.9 321.5 176.2 372.2 149.3 419.2L135.4 443.5C122.5 466.1 98.51 480 72.5 480C32.46 480 0 447.5 0 407.5V335.6C0 293.2 27.81 255.8 68.41 243.7L152.9 218.3C157.6 191.1 160 163.5 160 135.8V128C160 110.3 145.7 96 128 96V96zM135.8 290.3L86.81 304.1C73.27 309 64 321.5 64 335.6V407.5C64 412.2 67.81 416 72.5 416C75.55 416 78.36 414.4 79.88 411.7L93.76 387.4C111.3 356.6 125.4 324.1 135.8 290.3V290.3zM384 416H187.5C195.7 400.3 203.2 384.3 209.9 368H384V416z"/></svg>
